src/icons/svg/CirclePlusFilled.svg

<svg width="24" height="24" viewBox="0 0 24 24" fill="none" xmlns="http://www.w3.org/2000/svg">
<path d="M12 1.92C6.43204 1.92 1.92004 6.434 1.92004 12C1.92004 17.568 6.43304 22.08 12 22.08C17.567 22.08 22.08 17.566 22.08 12C22.08 6.434 17.566 1.92 12 1.92V1.92ZM13.226 13.226V18.058H10.774V13.226H5.94004V10.773H10.772V5.939H13.226V10.771H18.058V13.225H13.226V13.226Z" fill="#1C2125"/>
</svg>

<!-- Generated by IcoMoon.io -->
<svg version="1.1" xmlns="http://www.w3.org/2000/svg" width="24" height="24" viewBox="0 0 24 24">
<title>circle-plus-filled</title>
<path fill="#444" d="M12 1.92c-5.568 0-10.080 4.514-10.080 10.080 0 5.568 4.513 10.080 10.080 10.080s10.080-4.514 10.080-10.080c0-5.566-4.514-10.080-10.080-10.080zM13.226 13.226v4.832h-2.452v-4.832h-4.834v-2.453h4.832v-4.834h2.454v4.832h4.832v2.454h-4.832z"></path>
</svg>
